X: 148
T: No_72_First_Song_of_the_Dog_Feast.krn
%%abc-version 2.0
%%abcx-abcm2ps-target-version 5.9.1 (29 Sep 2008)
%%abc-creator hum2abc beta
%%abcx-conversion-date 2020/08/10 18:54:56
%%gracespace 0 6 6
%%humdrum-veritas 2369436408
%%humdrum-veritas-data 2692690754
%%linebreak <none>
%%barnumbers 0
L: 1/8
M: 2/4
%%staves {1 2}
V: 1 clef=bass
V: 2 clef=bass
K: C
[V:1] D2 [I:setbarnb 1]| 
[V:2] z2 | 
[V:1] E2D2 | 
[V:2] (3!accent!G,, z G,, (3!accent!G,, z G,, | 
[V:1] C2C3/C/ | 
[V:2] z4 | 
[V:1] C2D2 | 
[V:2] z4 | 
[V:1] E2D2 ||  
[V:2] z4 ||  
[V:1] [M:3/4]C2C>CC2 ||  
[V:2] [M:3/4]z6 ||  
[V:1] [M:2/4]CD CC | 
[V:2] [M:2/4]z4 | 
[V:1] CA, G,3/G,/ | 
[V:2] z4 | 
[V:1] F,D,C,2 | 
[V:2] z4 | 
[V:1] F,/F,/D,D,2 | 
[V:2] z4 | 
[V:1] C,<C, D,/D,/C,3//C,// | 
[V:2] z4 | 
[V:1] C,4- | 
[V:2] z4 | 
[V:1] C,2z2 |]  
[V:2] z4 |]  


